X:326
T: Heimliche Liebe (66), S.199
N: T0215
O: Luxemburg
S: Singendes Volk, Esch-Alzette 1937 posth.]
N: Mertert, hhh J.P. Kayser
R: Liebeslieder]
M: 2/4
L: 1/8
K: F
 | F2FG | A2A2 | G2AG | F2z2
AGAB | c2c2 | cdcB | A2z
c | ccdc | B2BB | A2cA | G2z
C | FGAB | cfdB | c2cB | A2z2

